usr/share/icons/biglinux-icons-material-dark/symbolic/actions/milestone.svg

<svg xmlns="http://www.w3.org/2000/svg" viewBox="0 0 16 16">
  <defs id="defs3051">
    <style type="text/css" id="current-color-scheme">
      .ColorScheme-Text {
        color:#dedede;
      }
      </style>
  </defs>
 <path style="fill:currentColor;fill-opacity:1;stroke:none" 
     d="M 2 2 L 2 14 L 14 14 L 14 2 L 2 2 z M 3 3 L 13 3 L 13 13 L 3 13 L 3 3 z M 8.0175781 4 L 6.765625 6.6269531 L 4 7.0390625 L 5.9882812 9.09375 L 5.5 11.984375 L 7.9804688 10.626953 L 10.443359 12 L 9.9882812 9.1074219 L 12 7.0664062 L 9.2382812 6.6347656 L 8.0175781 4 z "
     class="ColorScheme-Text"
     />
</svg>

<svg xmlns="http://www.w3.org/2000/svg" viewBox="0 0 16 16">
<defs id="defs3051">
<style id="current-color-scheme" type="text/css">
.ColorScheme-Contrast{color:#dedede}
</style>
</defs>
<path d="M2 2v12h12V2zm1 1h10v10H3zm5.018 1L6.766 6.627 4 7.039l1.988 2.055-.488 2.89 2.48-1.357L10.443 12l-.455-2.893L12 7.067l-2.762-.432z" class="ColorScheme-Contrast" style="fill:currentColor;fill-opacity:1;stroke:none"/>
</svg>
